img/settings.svg

<svg width="36" height="36" viewBox="0 0 36 36" fill="none" xmlns="http://www.w3.org/2000/svg">
<path d="M30.3749 18.8551V18.0001V17.1338L32.5349 15.2438C32.9331 14.8929 33.1944 14.4125 33.2726 13.8875C33.3508 13.3626 33.2409 12.8269 32.9624 12.3751L30.3074 7.87509C30.1101 7.53339 29.8265 7.24957 29.4849 7.05211C29.1432 6.85465 28.7557 6.7505 28.3612 6.75009C28.1166 6.74822 27.8735 6.78622 27.6412 6.86259L24.9074 7.78509C24.4354 7.47145 23.9431 7.18958 23.4337 6.94134L22.8599 4.10634C22.757 3.5884 22.4753 3.12314 22.0639 2.79201C21.6526 2.46088 21.1379 2.28497 20.6099 2.29509H15.3449C14.8169 2.28497 14.3022 2.46088 13.8909 2.79201C13.4796 3.12314 13.1978 3.5884 13.0949 4.10634L12.5212 6.94134C12.0081 7.18952 11.512 7.47138 11.0362 7.78509L8.35867 6.81759C8.12388 6.75642 7.88074 6.73362 7.63867 6.75009C7.2441 6.7505 6.85658 6.85465 6.51497 7.05211C6.17337 7.24957 5.8897 7.53339 5.69242 7.87509L3.03742 12.3751C2.77483 12.8262 2.67725 13.3546 2.7614 13.8697C2.84555 14.3849 3.10618 14.8547 3.49867 15.1988L5.62492 17.1451V18.8663L3.49867 20.7563C3.0951 21.1028 2.82733 21.5811 2.74289 22.1063C2.65845 22.6315 2.7628 23.1696 3.03742 23.6251L5.69242 28.1251C5.8897 28.4668 6.17337 28.7506 6.51497 28.9481C6.85658 29.1455 7.2441 29.2497 7.63867 29.2501C7.88319 29.252 8.12637 29.214 8.35867 29.1376L11.0924 28.2151C11.5644 28.5287 12.0567 28.8106 12.5662 29.0588L13.1399 31.8938C13.2428 32.4118 13.5246 32.877 13.9359 33.2082C14.3472 33.5393 14.8619 33.7152 15.3899 33.7051H20.6999C21.2279 33.7152 21.7426 33.5393 22.1539 33.2082C22.5653 32.877 22.847 32.4118 22.9499 31.8938L23.5237 29.0588C24.0367 28.8107 24.5328 28.5288 25.0087 28.2151L27.7312 29.1376C27.9635 29.214 28.2066 29.252 28.4512 29.2501C28.8457 29.2497 29.2332 29.1455 29.5749 28.9481C29.9165 28.7506 30.2001 28.4668 30.3974 28.1251L32.9624 23.6251C33.225 23.174 33.3226 22.6456 33.2384 22.1305C33.1543 21.6153 32.8936 21.1455 32.5012 20.8013L30.3749 18.8551ZM28.3612 27.0001L24.5024 25.6951C23.5991 26.4602 22.5667 27.0583 21.4537 27.4613L20.6549 31.5001H15.3449L14.5462 27.5063C13.4419 27.0919 12.4151 26.4948 11.5087 25.7401L7.63867 27.0001L4.98367 22.5001L8.04367 19.8001C7.83565 18.6356 7.83565 17.4434 8.04367 16.2788L4.98367 13.5001L7.63867 9.00009L11.4974 10.3051C12.4007 9.53997 13.4331 8.94188 14.5462 8.53884L15.3449 4.50009H20.6549L21.4537 8.49384C22.5579 8.90832 23.5847 9.50538 24.4912 10.2601L28.3612 9.00009L31.0162 13.5001L27.9562 16.2001C28.1642 17.3646 28.1642 18.5568 27.9562 19.7213L31.0162 22.5001L28.3612 27.0001Z" fill="white"/>
<path d="M18 24.75C16.665 24.75 15.3599 24.3541 14.2499 23.6124C13.1399 22.8707 12.2747 21.8165 11.7638 20.5831C11.2529 19.3497 11.1193 17.9925 11.3797 16.6831C11.6402 15.3738 12.283 14.171 13.227 13.227C14.171 12.283 15.3738 11.6402 16.6831 11.3797C17.9925 11.1193 19.3497 11.2529 20.5831 11.7638C21.8165 12.2747 22.8707 13.1399 23.6124 14.2499C24.3541 15.3599 24.75 16.665 24.75 18C24.759 18.8889 24.5906 19.7707 24.2546 20.5938C23.9186 21.4168 23.4217 22.1645 22.7931 22.7931C22.1645 23.4217 21.4168 23.9186 20.5938 24.2546C19.7707 24.5906 18.8889 24.759 18 24.75V24.75ZM18 13.5C17.4053 13.4861 16.8139 13.5931 16.2617 13.8143C15.7094 14.0356 15.2078 14.3665 14.7872 14.7872C14.3665 15.2078 14.0356 15.7094 13.8143 16.2617C13.5931 16.8139 13.4861 17.4053 13.5 18C13.4861 18.5947 13.5931 19.1861 13.8143 19.7383C14.0356 20.2906 14.3665 20.7922 14.7872 21.2128C15.2078 21.6335 15.7094 21.9644 16.2617 22.1857C16.8139 22.4069 17.4053 22.5139 18 22.5C18.5947 22.5139 19.1861 22.4069 19.7383 22.1857C20.2906 21.9644 20.7922 21.6335 21.2128 21.2128C21.6335 20.7922 21.9644 20.2906 22.1857 19.7383C22.4069 19.1861 22.5139 18.5947 22.5 18C22.5139 17.4053 22.4069 16.8139 22.1857 16.2617C21.9644 15.7094 21.6335 15.2078 21.2128 14.7872C20.7922 14.3665 20.2906 14.0356 19.7383 13.8143C19.1861 13.5931 18.5947 13.4861 18 13.5Z" fill="white"/>
</svg>

<svg width="36" height="36" fill="none" xmlns="http://www.w3.org/2000/svg"><path d="M30.375 18.855v-1.721l2.16-1.89a2.25 2.25 0 0 0 .427-2.869l-2.655-4.5a2.25 2.25 0 0 0-1.946-1.125 2.25 2.25 0 0 0-.72.113l-2.734.922a12.773 12.773 0 0 0-1.473-.844l-.574-2.835a2.25 2.25 0 0 0-2.25-1.81h-5.265a2.25 2.25 0 0 0-2.25 1.81l-.574 2.835c-.513.249-1.009.53-1.485.844L8.36 6.818a2.25 2.25 0 0 0-.72-.068 2.25 2.25 0 0 0-1.947 1.125l-2.655 4.5A2.25 2.25 0 0 0 3.5 15.2l2.126 1.946v1.721L3.5 20.757a2.25 2.25 0 0 0-.462 2.87l2.655 4.5A2.25 2.25 0 0 0 7.64 29.25c.244.002.487-.036.72-.112l2.733-.923c.472.314.965.596 1.474.844l.574 2.835a2.25 2.25 0 0 0 2.25 1.811h5.31a2.25 2.25 0 0 0 2.25-1.811l.574-2.835c.513-.248 1.009-.53 1.485-.844l2.722.923c.232.076.476.114.72.112a2.251 2.251 0 0 0 1.946-1.125l2.565-4.5a2.25 2.25 0 0 0-.46-2.824l-2.127-1.946ZM28.36 27l-3.859-1.305a9.968 9.968 0 0 1-3.048 1.766l-.8 4.04h-5.31l-.798-3.995a10.528 10.528 0 0 1-3.037-1.766L7.639 27l-2.655-4.5 3.06-2.7a10.013 10.013 0 0 1 0-3.521L4.984 13.5 7.639 9l3.858 1.305a9.967 9.967 0 0 1 3.05-1.766l.798-4.039h5.31l.799 3.994a10.532 10.532 0 0 1 3.037 1.766L28.361 9l2.655 4.5-3.06 2.7a10.013 10.013 0 0 1 0 3.521l3.06 2.78-2.655 4.5Z" fill="#fff"/><path d="M18 24.75A6.75 6.75 0 1 1 24.75 18 6.684 6.684 0 0 1 18 24.75Zm0-11.25a4.399 4.399 0 0 0-4.5 4.5 4.399 4.399 0 0 0 4.5 4.5 4.399 4.399 0 0 0 4.5-4.5 4.399 4.399 0 0 0-4.5-4.5Z" fill="#fff"/></svg>
